X:1
T:Le Chant du Départ
T:Chant du Départ
T:National Anthem of the First French Empire
T:Étienne Nicolas Méhul 1763-1817 
T:Marie-Joseph Chénier 1764-1811 
C:Étienne Nicolas Méhul
Z:Marie-Joseph Chénier
%%score ( 1 2 ) { ( 3 5 7 ) | ( 4 6 ) }
L:1/8
M:4/4
K:C
V:1 treble nm="Voice"
V:2 treble 
V:3 treble nm="Piano"
V:5 treble 
V:7 treble 
V:4 bass 
V:6 bass 
V:1
 z2 z | z8 | z8 | z8 |"^CHANT" z4 z2"^sonore" e d | c4 c2 G2 | c6 c2 | d3 e f2 e2 | e4 d f e d | %9
w: ||||La vic-|toire en chan-|tant nous|ou- vre la bar|riè- re, La li- ber-|
w: ||||De Bar-|ra, de Via-|la, le|sort nous fait en-|vi- e, Ils sont morts,|
w: ||||Et Nous,|soers des hé-|ros, nous|qui de l'hy- mé-|né- e, I- gno- rons|
 c3 c (dc) (BA) | G4 z2 e d | c2 c2 c2 G2 | c6 c2 | d3 e f2 e2 | e4 d f e d | c3 c (dc) (BA) | %16
w: té, gui- de * nos *|pas; Et du|nord * au mi-|di la|trom- pet- te guer-|ri- ère A son- né|l'heu- re des * com- *|
w: mais ils ont * vain- *|cu. Le *|làche ac- ca- blé|d'ans n'a|point con- nu la|vi- e Qui meurt pour|le peuple a * vé- *|
w: les ai- ma- * bles *|noeuds, Si *|pour s'u nir un|jour à|no- tre des- ti-|né- e Les ci- toy-|ens for- ment * des *|
 G4 z2 G2 | (GA) B c d2 B G | c4 c2 c c | d2 d2 _e2 c e | d6 d2 | f _e d c (Bc) (dB) | %22
w: bats. Trem-|blez, * en- ne- mis de la|Fran- ce! Rois *|i- vres sang et d'or-|gueil, Le|peu- ple sou- ve- rain * s'a- *|
w: cu. Vous|ê- * tes vail- lants, nous le|som- mes; Gui- *|des- nous tre les ty-|rans, Les|ré- pu- bli- cains sont * des *|
w: voeux, Qu'ils|re * vien- nent dans nos mu-|rail- les Reaux de|gloire et de li- ber-|té Et|que leur sang dans les * ba- *|
 G4 G2 !>!G2 | !>!c2 !>!G !>!G !>!_E2 !>!C C | !>!G4!f! z"^REFRAIN" G A B | c3 c d3 d | %26
w: van- ce; Ty-|rans des- cen- dez au cer-|cueil. La Ré- pu-|bli- que nous ap-|
w: hom- mes Les|cla- * * sont des en-|fants. * * *||
w: tail- les, Ait|lé * * l'é- ga- li-|té! * * *||
 e2 c2 z2 c c | d4 egfe | d6 ed | c3 c (Bc) d e | f4 d2 f2 | e2 c e g2 ec | G4 z2 e d | %33
w: pel- le, Sa- chons|vaincre ou sa- chons pé|rir: Un Fran-|çais doit vi- * vre pour|el- le, Pour|elle un Fran- çais doit mou-|rir! Un Fran-|
w: |||||||
w: |||||||
 c3 c (Bc) d e | f4 d2"^Rall." f2 | %35
w: çais doit vi- * vre pour|el- le, Pour|
w: ||
w: ||
 !fermata!e2 !fermata!c !fermata!e !fermata!g2 !fermata!B !fermata!B | !fermata!c4- !fermata!c |] %37
w: elle un Fran- çais doit mou-|rir! *|
w: ||
w: ||
V:2
 x3 | x8 | x8 | x8 | x8 | x8 | x8 | x8 | x8 | x8 | x6 (ed) | c4 x4 | x8 | x8 | x8 | x8 | x8 | x8 | %18
w: ||||||||||||||||||
w: ||||||||||||||||||
w: ||||||||||||||||||
 x6 c2 | x2 d d x4 | x8 | x8 | x6 G G | x2 G2 x4 | x8 | x8 | x8 | x8 | x8 | x8 | x8 | x8 | x8 | %33
w: |* de||||||||||||||
w: |* con|||* es-|ves||||||||||
w: ||||* cou-|pour||||||||||
 x8 | x8 | x8 | x5 |] %37
w: ||||
w: ||||
w: ||||
V:3
!f! .G.A.B | [EGc]3 [EAc] [GBd]3 [GBd] | [Gce]!<(!cde fdef | gabc'!<)!!ff! [Gce] z [FGBd] z | %4
 [EGc] z .G z .C z z2 |!mf! .[G,CE]2 .[G,CE]2 .[G,CE]2 .[G,B,F]2 | %6
 .[G,CG]2 .[G,CF]2 .[G,CE]2 .[G,CE]2 | B,CDE GABc | .[EGc]2 .[EGc]2 .[DGB]2 z2 | %9
 .[CEG]2 .[CEG]2 .[CEG]2 .[CD^F]2 | ([B,G]2 [CA]2 [DB]2 [Ec][=Fd]) | E4 FE D2 | E4 A2 G2 | %13
 [FAd]4 G4 | G2 ^F2 =F2 E2 | [CEA]4 [CDA]2 [CD^F]2 | [B,DG]2!sfz! G>G G2 G2 | z G G2 GA B2 | %18
 [EGc]6 c2 | ([DB]G[DB]G) ([_Ec]G[Ec]G) | [DB]G[DB]G [Dc]=F[Dc]F | [DB][_Ec][Fd][Ec] BcdB | %22
!<(! G6 G2!<)! |!f! !>![C_Ec]2 !>![G,G]2 !>!E2 !>!C2 | !>![B,DB]4 z4 | %25
!mf! [G,CEG] z [G,CEG] z [G,B,DG] z [G,B,DG] z | [G,CEG] z [G,CEG] z [G,CEG] z [G,CEG] z | %27
 [G,B,DG] z [G,B,DG] z [G,CEG] z [G,CEG] z | [G,B,DG] z [G,B,DG] z [G,B,DG] z z2 | %29
!>(! ([EG][DF] .[CE]2)!>)! .[EG]2 .[G_B]2 |!<(! A6!<)! [Ad]2 | [EGc] z [EGc] z [EGc] z [EGc] z | %32
!f! !tenuto![GB]2 !tenuto!G!tenuto!B !tenuto!d2 !tenuto!GF | [G,CE] z [G,CE] z [G,CE] z [_B,EG] z | %34
 [A,DF] z [_A,DF] z [G,DF] z [B,DF] z | [EG] z!f! [CEc]2 [DGc]2 [DFGB]2 | %36
 [EGc] z !fermata![EGc] z [EGc] |] %37
V:4
 z z2 | z .C.B,.A, .G,.F,E,.D, | .C, z [B,_CG] z [A,CF] z [_A,CD] z | %3
 [G,CE]2- [G,CE] z [G,,G,] z [G,,G,] z | [C,C] z .[G,,G,] z .[C,,C,] z z2 | %5
 .[C,,C,]2 .[C,,C,]2 .[C,,C,]2 .[D,,D,]2 | .[E,,E,]2 .[D,,D,]2 .[C,,C,]2 .[C,,C,]2 | %7
 G,,A,,B,,C, D,2 C,2 | G,4 G,,2 z2 | [C,,C,]2 [B,,,B,,]2 [A,,,A,,]2 [D,,D,]2 | [G,,,G,,]4 z4 | %11
 z2 [C,G,]2 [F,A,]2 [G,B,]2 | A,2 G,2 F,2 E,2 | D,2 C,2 B,,2 C,2 | [G,,G,]6 [^G,,^G,]2 | %15
 [A,,A,]2 [=G,,=G,]2 [^F,,^F,]2 [D,,D,]2 | [G,,G,]2 z2 z4 | G,2 G,A, B,C D2 | C2 G,2 C,2 z2 | %19
{/G,,} G,8 |{/G,,} !tenuto!G,2 !tenuto!G,!tenuto!G, !tenuto!_A,2 !tenuto!F,!tenuto!A, | %21
 G,4 =A,2 [D,C]2 | G,2 =F,2 _E,2 D,2 | !>!C,2 !>!G,,2 !>![_E,,_E,]2 !>![C,,C,]2 | %24
 !>![G,,,G,,]4 z4 | [C,,C,] z [C,,C,] z [G,,,G,,] z [G,,,G,,] z | %26
 [C,,C,] z [C,,C,] z [C,,C,] z [C,,C,] z | [G,,,G,,] z [G,,,G,,] z [C,,C,] z [C,,C,] z | %28
 [G,,,G,,] z [G,,,G,,] z [G,,,G,,] z z2 | .[C,G,]2 .[C,G,]2 .[C,G,]2 .[C,G,]2 | [F,A,]6 [D,,D,]2 | %31
 [G,,G,] z [G,,G,] z [G,,G,] z [G,,G,] z | [G,,G,] z [G,B,D] z [G,B,D] z [G,B,D] z | %33
 [C,,C,] z [C,,C,] z [C,,C,] z [C,,C,] z | [D,,D,] z [C,,C,] z [=B,,,=B,,] z [G,,,G,,] z | %35
 [A,,,A,,] z [A,,A,]2 [G,,G,]2 [G,,G,]2 | [C,,C,] z [C,,C,] z [C,,C,] |] %37
V:5
 x3 | x8 | x8 | x8 | x8 | x8 | x8 | G4 F2 E2 | x8 | x8 | G4 G4 | c4 c2 G2 | c6 c2 | x4 F2 E2 | %14
 E4 D4 | x8 | x8 | =F4 F4 | x8 | x8 | x8 | G4 [DF]2 F2 | B,4 C2 [B,D]2 | x8 | x8 | x8 | x8 | x8 | %28
 x8 | x8 | (C2 ^C2 D2) F2 | x8 | D z x6 | x8 | x8 | x8 | x5 |] %37
V:6
 x3 | x8 | x8 | x8 | x8 | x8 | x8 | x8 | x8 | x8 | x8 | x8 | C4 z2 z2 | x8 | x8 | x8 | x8 | x8 | %18
 x8 | x8 | x8 | x8 | z2 G,2 A,2 x2 | x8 | x8 | x8 | x8 | x8 | x8 | x8 | x8 | x8 | x8 | x8 | x8 | %35
 x8 | x5 |] %37
V:7
 x3 | x8 | x8 | x8 | x8 | x8 | x8 | x8 | x8 | x8 | x8 | x8 | x8 | x4 d2 c2 | c4 B4 | x8 | x8 | x8 | %18
 x8 | x8 | x8 | x8 | x8 | x8 | x8 | x8 | x8 | x8 | x8 | x8 | x8 | x8 | x8 | x8 | x8 | x8 | x5 |] %37

